src/main/resources/icons/JavaUltimateIcons/icons/javaee/messageBean.svg

<svg xmlns="http://www.w3.org/2000/svg" width="16" height="16" viewBox="0 0 16 16">
  <g fill="none" fill-rule="evenodd">
    <path fill="#935E2D" fill-opacity=".7" d="M9.06065145,8 L3.3735,2.3134 C6.1755,0.0574 9.7675,0.8624 12.4525,3.5484 C13.7823455,4.87824548 14.651157,6.4309977 14.9149195,8 L9.06065145,8 Z M6,14.2514228 C5.13568714,13.8195738 4.30545465,13.2113546 3.5475,12.4534 C0.8635,9.7694 0.0575,6.1774 2.3135,3.3754 L6.9381,8 L6,8 L6,14.2514228 Z"/>
    <path fill="#9AA7B0" fill-opacity=".8" d="M7,9 L16,9 L16,16 L7,16 L7,9 Z M15,11.2 L15,10 L11.5,12.25 L8,10 L8,11.2 L11.5,13.45 L15,11.2 Z"/>
  </g>
</svg>

<svg xmlns="http://www.w3.org/2000/svg" width="16" height="16" viewBox="0 0 16 16"><rect id="frame" width="16" height="16" fill="none"/><g fill="none" fill-rule="evenodd"><path fill="#935E2D" fill-opacity=".7" d="M9.06 8L3.374 2.313C6.176.057 9.768.863 12.454 3.548c1.33 1.33 2.198 2.883 2.462 4.452H9.06zM6 14.251a9.514 9.514 0 0 1-2.453-1.798C.865 9.77.057 6.177 2.313 3.375L6.938 8H6v6.251z"/><path fill="#9AA7B0" fill-opacity=".8" d="M7 9h9v7H7V9zm8 2.2V10l-3.5 2.25L8 10v1.2l3.5 2.25L15 11.2z"/></g></svg>
